X:1
T:Away in a Manger
T:Away in a Manger
T:Traditional Arr. Shiney & Shally Albert 
C:Traditional
%%score [ 1 2 3 4 ]
L:1/8
M:3/4
K:G
V:1 treble nm="Violin I"
V:2 treble nm="Violin II"
V:3 alto nm="Viola"
V:4 bass nm="Violoncello"
V:1
!p! uB2 | B3 (A G2) | G2 F2 E2 | E2 D2 C2 | B,4 B,2 | A,3 (A, A,2) | A,2 F2 D2 | C2 B,2 D2 | %8
 G4!mp! B2 | B3 (A G2) | G2 F2 E2 | E2 D2 C2 | B,4 B,2 | A3 (G F2) | G2 F2 E2 | F2 C2 D2 | D6- | %17
 D4 z2 |!mp! !///-!D3 ^D3 | !///-!D3 ^D3 | !///-!^D3 F3 | !///-!D3 ^D3 | !///-!C3 D3 | %23
 !///-!D3 ^D3 | !///-!D3 ^D3 | !///-!D3 ^D3 | !///-!D3 ^D3 | !///-!D3 ^D3 | !///-!^D3 F3 | %29
 !///-!D3 ^D3 | !///-!^D3 ^E3 | !///-!D3 ^D3 | !///-!C3 D3 | !///-!D3 ^D3 |!<(! vBG DG BA!<)! | %35
!mf! (G3 A) (Bc) | d4 ef | g2 f2 e2 | d4 (ef) | (g2 f2) e2 | d2 e2 f2 | g2 d2 c2 | B4 (BA) | %43
 (G3 A) (Bc) | d4 (ef) | (g2 f2) e2 | d4 z2 | vF3 G D2 | E2 D2 B,2 | E4 F2 | B,4 z2 | %51
!p!"_rit." F6 | E6 | E4 F2 | B,6 |] %55
V:2
!mp! ud2 | d3 (c B2) | B2 A2 G2 | G2 F2 E2 | D4 D2 | D3 (E D2) | D2 A2 F2 | E2 D2 G2 | B4!mf! d2 | %9
 d3 (c B2) | B2 A2 G2 | G2 F2 E2 | D4 D2 | c3 (B A2) | B2 A2 G2 | A2 E2 F2 | G6- | G4 z2 | %18
!mp! !///-!_B,3 C3 | !///-!_B,3 C3 | !///-!C3 ^D3 | !///-!_B,3 C3 | !///-!A,3 ^A,3 | !///-!A,3 C3 | %24
 !///-!A,3 C3 | !///-!_B,3 C3 | !///-!_B,3 C3 | !///-!_B,3 C3 | !///-!C3 ^D3 | !///-!_B,3 C3 | %30
 !///-!C3 D3 | !///-!_B,3 C3 | !///-!A,3 ^A,3 | !///-!_B,3 C3 |!<(! vDB, G,B, DE!<)! | %35
!mf! B3 (A G2) | G2 F2 E2 | E2 D2 C2 | B,4 B,2 | A,3 (A, A,2) | A,2 F2 D2 | C2 B,2 D2 | G4 B2 | %43
 B3 (A G2) | G2 F2 E2 | E2 D2 C2 | B,4 B,2 | A3 (G F2) | G2 F2 E2 | F2 C2 D2 | D4 z2 | %51
!p!"_rit." A6 | G6 | G4 D2 | D6 |] %55
V:3
 z2 |!p! vD3 (E D2) | B,6 | uD3 vE uD2 | B,6 | vA4 A2 | F6 | G4 (G2 | D6) |!mp! vD3 (E D2) | B,6 | %11
 uD3 vE uD2 | B,4 z2 | vF3 (G D2) | E2 D2 B,2 | E4 F2 | B,6- | B,4 z2 |!mp! !///-!G,3 A,3 | %19
 !///-!G,3 A,3 | !///-!G,3 A,3 | !///-!G,3 A,3 | !///-!F,3 G,3 | !///-!F,3 G,3 | !///-!F,3 G,3 | %25
 !///-!G,3 A,3 | !///-!G,3 A,3 | !///-!G,3 A,3 | !///-!G,3 A,3 | !///-!G,3 A,3 | !///-!A,3 C3 | %31
 !///-!G,3 A,3 | !///-!F,3 G,3 | !///-!G,3 A,3 |!<(! vG,A, B,D GA!<)! |!f! d3 (c B2) | B2 A2 G2 | %37
 G2 F2 E2 | D4 D2 | D3 (E D2) | D2 A2 F2 | E2 D2 G2 | B4 d2 | d3 (c B2) | B2 A2 G2 | G2 F2 E2 | %46
 D4 D2 | c3 (B A2) | B2 A2 G2 | A2 E2 F2 | G4!mp! D2 |"_rit." c3 (B A2) | B2 A2 G2 | A2 E2 F2 | %54
 G6 |] %55
V:4
 z2 |"^pizz."!p! G,,2 B,,2 D,2 | G,2 D,2 B,,2 | C,2 E,2 G,2 | G,,2 B,,2 D,2 | D,,2 F,,2 A,,2 | %6
 C,2 A,,2 F,,2 | C,2 B,,2 A,,2 | G,,2 A,,2!mp! B,,2 | G,,2 B,,2 D,2 | G,2 D,2 B,,2 | C,2 E,2 G,2 | %12
 G,,2 B,,2 D,2 | D,,2 F,,2 A,,2 | E,2 B,,2 G,,2 | C,2 C,2 D,2 | G,,2 z4 | z4"^arco"!mf! uD,2 | %18
 D,3 (C, _B,,2) | _B,,2 A,,2 G,,2 | G,,2 =F,,2 _E,,2 | D,,4 D,,2 | D,,3 (_E,, D,,2) | %23
 D,,2 A,,2 F,,2 | _E,,2 D,,2 G,,2 | _B,,4 D,2 | D,3 (C, _B,,2) | _B,,2 A,,2 G,,2 | %28
 G,,2 =F,,2 _E,,2 | D,,4 D,,2 | C,3 (_B,, A,,2) | _B,,2 A,,2 G,,2 | A,,2 _E,,2 =F,,2 | G,,6 | %34
 vD,,6 |"^pizz." G,,2 B,,2 D,2 | G,2 D,2 B,,2 | C,2 E,2 G,2 | G,,2 B,,2 D,2 | D,,2 F,,2 A,,2 | %40
 C,2 A,,2 F,,2 | C,2 B,,2 A,,2 | G,,2 A,,2 B,,2 | G,,2 B,,2 D,2 | G,2 D,2 B,,2 | C,2 E,2 G,2 | %46
 G,,2 B,,2 D,2 | D,,2 F,,2 A,,2 | E,2 B,,2 G,,2 | C,2 C,2 D,2 | G,,2 z4 |"^arco"!p!"_rit." D,,6 | %52
 E,,6 | C,,4 D,,2 | G,,6 |] %55

